packages/foundations/assets/icons/functional/images/buildings/train_station_12.svg

<svg width="12" height="12" viewBox="0 0 12 12" fill="none" xmlns="http://www.w3.org/2000/svg">
<g clip-path="url(#clip0_231_114)">
<path fill-rule="evenodd" clip-rule="evenodd" d="M8.40002 1.19997C8.73802 1.19997 9.00002 1.46197 9.00002 1.79997V5.39997H10.2C10.538 5.39997 10.8 5.66197 10.8 5.99997V10.2C10.8 10.538 10.537 10.8 10.2 10.8H7.20002C7.12093 10.8011 7.04243 10.7863 6.96914 10.7565C6.89586 10.7267 6.82929 10.6826 6.77336 10.6266C6.71743 10.5707 6.67327 10.5041 6.6435 10.4309C6.61373 10.3576 6.59894 10.2791 6.60002 10.2V8.99997H5.40002V10.2C5.40002 10.538 5.13702 10.8 4.80002 10.8H1.80002C1.72093 10.8011 1.64243 10.7863 1.56914 10.7565C1.49586 10.7267 1.42929 10.6826 1.37336 10.6266C1.31743 10.5707 1.27327 10.5041 1.2435 10.4309C1.21373 10.3576 1.19895 10.2791 1.20002 10.2V5.99997C1.20002 5.66197 1.46202 5.39997 1.80002 5.39997H3.00002V1.79997C3.00002 1.46197 3.26302 1.19997 3.60002 1.19997H8.40002ZM7.80002 2.39997H4.20002V6.59997H2.40002V9.59997H4.20002V8.39997C4.20002 8.06197 4.46302 7.79997 4.80002 7.79997H7.20002C7.53702 7.79997 7.80002 8.06197 7.80002 8.39997V9.59997H9.60002V6.59997H7.80002V2.39997ZM5.40002 5.39997V4.19997H6.60002V5.39997H5.40002Z" fill="#1A1C1F"/>
</g>
<defs>
<clipPath id="clip0_231_114">
<rect width="12" height="12" fill="white"/>
</clipPath>
</defs>
</svg>

<svg xmlns="http://www.w3.org/2000/svg" width="12" height="12" fill="none"><g clip-path="url(#a)"><path fill="#1A1C1F" fill-rule="evenodd" d="M8.4 1.2c.338 0 .6.262.6.6v3.6h1.2c.338 0 .6.262.6.6v4.2c0 .338-.263.6-.6.6h-3a.59.59 0 0 1-.6-.6V9H5.4v1.2c0 .338-.263.6-.6.6h-3a.59.59 0 0 1-.6-.6V6c0-.338.262-.6.6-.6H3V1.8c0-.338.263-.6.6-.6zm-.6 1.2H4.2v4.2H2.4v3h1.8V8.4c0-.338.263-.6.6-.6h2.4c.337 0 .6.262.6.6v1.2h1.8v-3H7.8zm-2.4 3V4.2h1.2v1.2z" clip-rule="evenodd"/></g><defs><clipPath id="a"><path fill="#fff" d="M0 0h12v12H0z"/></clipPath></defs></svg>
